src/img/search.svg

<svg width="20" height="20" viewBox="0 0 20 20" fill="none" xmlns="http://www.w3.org/2000/svg">
<path d="M8.06125 2.52265C4.98425 2.52265 2.52265 4.98425 2.52265 8.06125C2.52265 11.1382 4.98425 13.5998 8.06125 13.5998C11.1382 13.5998 13.5998 11.1382 13.5998 8.06125C13.5998 4.98425 11.1382 2.52265 8.06125 2.52265ZM14.4614 12.7383L20 18.2769L18.2769 20L12.7383 14.4614C9.16897 17.0461 4.12269 16.3076 1.53801 12.7383C-1.04667 9.16897 -0.308187 4.12269 3.26113 1.53801C6.83045 -1.04667 11.8767 -0.308187 14.4614 3.26113C16.5538 6.09197 16.5538 10.0305 14.4614 12.7383Z" fill="white"/>
</svg>

<svg width="20" height="20" fill="none" xmlns="http://www.w3.org/2000/svg"><path d="M8.061 2.523A5.516 5.516 0 0 0 2.523 8.06 5.516 5.516 0 0 0 8.06 13.6a5.516 5.516 0 0 0 5.54-5.54 5.516 5.516 0 0 0-5.54-5.537Zm6.4 10.215L20 18.277 18.277 20l-5.539-5.539c-3.569 2.585-8.615 1.847-11.2-1.723-2.585-3.569-1.846-8.615 1.723-11.2 3.57-2.585 8.616-1.846 11.2 1.723 2.093 2.831 2.093 6.77 0 9.477Z" fill="#fff"/></svg>
